X:1
T:Escoffier, 11.11.11.11
T:Escoffier, 11.11.11.11
T:George C. Kersey, 1896
T:Public Domain Courtesy of the Cyber Hymnal™
C:George C. Kersey, 1896
Z:Public Domain
Z:Courtesy of the Cyber Hymnal™
%%score ( 1 2 ) 3
L:1/8
Q:1/4=115
M:4/4
K:Eb
V:1 treble 
V:2 treble 
V:3 bass 
V:1
 E2 | [EG]4 [EF]2 E2 | [Ac]4 [GB]2 [EB]2 | [DB]4 [DF]2 [DF]2 | [EG]6 [EG]>[EG] | %5
 [EA]4 [EA]2 [EA]2 | [EG]4 [EG]2 [EG]2 | [DF]4 [EG]2 [E=A]2 | [DB]6 [EG]2 | [GB]4 [FA]2 [EG]2 | %10
 [Ac]4 [GB]2 [EG]2 | [Ee]4 [EA]2 [Ac]2 | [GB]6 [GB]2 | [Ee]4 [EA]2 [Ac]2 | [GB]4 [EG]2 E2 | %15
 [CF]4 [B,E]2 [B,D]2 | [B,E]6 [GB]2 | [GB]4 [FA]2 [EG]2 | [DA]4 [DA]2 [FA]2 | [Af]4 [Ad]2 [FA]2 | %20
 [EG]6 [EB][EB] | [Ee]4 [EA]2 [Ac]2 | [GB]4 [EG]2 E2 | [CF]4 [B,E]2 [B,D]2 | [B,E]6 |] %25
V:2
 E2 | x6 E2 | x8 | x8 | x8 | x8 | x8 | x8 | x8 | x8 | x8 | x8 | x8 | x8 | x6 E2 | x8 | x8 | x8 | %18
 x8 | x8 | x8 | x8 | x6 E2 | x8 | x6 |] %25
V:3
 [E,G,]2 | [E,B,]4 [E,A,]2 [E,G,]2 | [E,E]4 [E,E]2 [E,G,]2 | [B,,F,]4 [B,,B,]2 [B,,B,]2 | %4
 [E,B,]6 [E,B,]>[E,B,] | [A,,C]4 [A,,C]2 [C,C]2 | [E,B,]4 [E,B,]2 [E,B,]2 | %7
 [F,B,]4 [F,B,]2 [F,C]2 | [B,,B,]6 [E,B,]2 | [E,E]4 [E,B,]2 [E,B,]2 | [E,E]4 [E,E]2 [E,B,]2 | %11
 [A,,C]4 [A,,C]2 [A,,E]2 | [E,E]6 [E,E]2 | [A,,C]4 [A,,C]2 [A,,E]2 | [E,E]4 [E,B,]2 [E,G,]2 | %15
 [A,,A,]4 [B,,G,]2 [B,,F,]2 | [E,G,]6 [E,E]2 | [E,E]4 [E,B,]2 [E,B,]2 | [F,B,]4 [F,B,]2 [F,B,]2 | %19
 [B,,B,]4 [B,,B,]2 [B,,B,]2 | [E,B,]6 [E,G,][E,G,] | [A,,C]4 [A,,C]2 [A,,E]2 | %22
 [E,E]4 [E,B,]2 [E,G,]2 | [A,,A,]4 [B,,G,]2 [B,,F,]2 | [E,G,]6 |] %25

